themes/etch/static/img/funders/wherobots.svg

<svg width="640" height="148" viewBox="0 0 640 148" fill="none" xmlns="http://www.w3.org/2000/svg">
<g clip-path="url(#clip0_1459_4104)">
<path d="M173.541 106.34L163.551 38.45H174.031L182.181 99.26H183.731L194.211 38.45H212.541L223.021 99.26H224.571L232.621 38.45H243.101L233.111 106.34H214.781L204.111 44.65H202.561L191.991 106.34H173.561H173.541Z" fill="black"/>
<path d="M250.061 106.34V38.45H260.051V65.32H261.601C262.251 64.09 263.171 62.8999 264.361 61.7299C265.561 60.5699 267.141 59.6099 269.111 58.8699C271.081 58.1299 273.591 57.75 276.631 57.75C280.251 57.75 283.471 58.5599 286.281 60.1699C289.091 61.7899 291.311 64.07 292.921 67.01C294.541 69.95 295.341 73.4899 295.341 77.6299V106.34H285.351V78.41C285.351 74.27 284.311 71.2199 282.251 69.2399C280.181 67.2699 277.331 66.2799 273.711 66.2799C269.571 66.2799 266.261 67.6399 263.771 70.3499C261.281 73.0699 260.041 77.01 260.041 82.18V106.33H250.051L250.061 106.34Z" fill="black"/>
<path d="M327.951 107.7C323.101 107.7 318.861 106.68 315.241 104.64C311.621 102.6 308.791 99.7299 306.751 96.0099C304.711 92.2899 303.691 87.9799 303.691 83.0599V81.8999C303.691 76.9199 304.691 72.5699 306.701 68.8499C308.701 65.1299 311.501 62.2499 315.091 60.2199C318.681 58.1799 322.831 57.1599 327.551 57.1599C332.271 57.1599 336.171 58.1799 339.631 60.2199C343.091 62.2599 345.791 65.0899 347.731 68.7099C349.671 72.3299 350.641 76.5699 350.641 81.4199V85.1999H313.881C314.011 89.3999 315.421 92.7499 318.101 95.2399C320.781 97.7299 324.131 98.9699 328.141 98.9699C331.891 98.9699 334.721 98.1299 336.631 96.4499C338.541 94.7699 340.011 92.8299 341.041 90.6299L349.281 94.8999C348.371 96.7099 347.061 98.6199 345.351 100.62C343.641 102.63 341.391 104.31 338.611 105.66C335.831 107.02 332.271 107.7 327.941 107.7H327.951ZM313.981 77.5399H340.461C340.201 73.9199 338.911 71.0899 336.581 69.0499C334.251 67.0099 331.211 65.9899 327.461 65.9899C323.711 65.9899 320.651 67.0099 318.291 69.0499C315.931 71.0899 314.491 73.9199 313.971 77.5399H313.981Z" fill="black"/>
<path d="M358.98 106.34V58.5198H368.78V64.1498H370.33C371.11 62.1498 372.35 60.6698 374.06 59.7398C375.77 58.7998 377.89 58.3298 380.41 58.3298H386.13V67.3498H380.02C376.79 67.3498 374.14 68.2398 372.07 70.0198C370 71.7998 368.97 74.5298 368.97 78.2198V106.35H358.98V106.34Z" fill="black"/>
<path d="M413.492 107.7C408.702 107.7 404.452 106.71 400.742 104.74C397.022 102.77 394.102 99.9399 391.962 96.2499C389.832 92.5599 388.762 88.1999 388.762 83.1599V81.7099C388.762 76.6699 389.832 72.3199 391.962 68.6599C394.092 65.0099 397.022 62.1799 400.742 60.1699C404.462 58.1699 408.712 57.1599 413.492 57.1599C418.272 57.1599 422.542 58.1599 426.292 60.1699C430.042 62.1699 432.982 64.9999 435.122 68.6599C437.252 72.3099 438.322 76.6599 438.322 81.7099V83.1599C438.322 88.1999 437.252 92.5699 435.122 96.2499C432.992 99.9399 430.042 102.76 426.292 104.74C422.542 106.71 418.272 107.7 413.492 107.7ZM413.492 98.7799C417.892 98.7799 421.462 97.3699 424.212 94.5599C426.962 91.7499 428.332 87.8499 428.332 82.8699V81.9999C428.332 77.0199 426.972 73.1199 424.262 70.3099C421.542 67.4999 417.962 66.0899 413.492 66.0899C409.022 66.0899 405.622 67.4999 402.872 70.3099C400.122 73.1199 398.752 77.0199 398.752 81.9999V82.8699C398.752 87.8499 400.122 91.7499 402.872 94.5599C405.622 97.3699 409.162 98.7799 413.492 98.7799Z" fill="black"/>
<path d="M474.689 107.7C470.029 107.7 466.459 106.86 463.969 105.18C461.479 103.5 459.619 101.62 458.389 99.55H456.839V106.34H447.039V38.45H457.029V65.0299H458.579C459.359 63.7399 460.389 62.4899 461.679 61.2999C462.969 60.0999 464.689 59.12 466.819 58.34C468.949 57.56 471.569 57.18 474.679 57.18C478.689 57.18 482.369 58.15 485.739 60.09C489.099 62.03 491.789 64.8399 493.789 68.5299C495.789 72.2199 496.799 76.61 496.799 81.72V83.1699C496.799 88.3399 495.779 92.76 493.739 96.41C491.699 100.06 489.019 102.86 485.689 104.8C482.359 106.74 478.689 107.71 474.679 107.71L474.689 107.7ZM471.779 98.97C476.109 98.97 479.679 97.58 482.499 94.8C485.309 92.02 486.719 88.04 486.719 82.87V82C486.719 76.89 485.329 72.9499 482.549 70.1699C479.769 67.3899 476.179 66 471.779 66C467.379 66 463.969 67.3899 461.159 70.1699C458.349 72.9499 456.939 76.9 456.939 82V82.87C456.939 88.04 458.349 92.02 461.159 94.8C463.969 97.58 467.509 98.97 471.779 98.97Z" fill="black"/>
<path d="M527.941 107.7C523.151 107.7 518.901 106.71 515.191 104.74C511.471 102.77 508.551 99.9399 506.411 96.2499C504.281 92.5599 503.211 88.1999 503.211 83.1599V81.7099C503.211 76.6699 504.281 72.3199 506.411 68.6599C508.541 65.0099 511.471 62.1799 515.191 60.1699C518.911 58.1699 523.161 57.1599 527.941 57.1599C532.721 57.1599 536.991 58.1599 540.741 60.1699C544.491 62.1699 547.431 64.9999 549.571 68.6599C551.701 72.3099 552.771 76.6599 552.771 81.7099V83.1599C552.771 88.1999 551.701 92.5699 549.571 96.2499C547.441 99.9399 544.491 102.76 540.741 104.74C536.991 106.71 532.721 107.7 527.941 107.7ZM527.941 98.7799C532.341 98.7799 535.911 97.3699 538.661 94.5599C541.411 91.7499 542.781 87.8499 542.781 82.8699V81.9999C542.781 77.0199 541.421 73.1199 538.711 70.3099C535.991 67.4999 532.411 66.0899 527.941 66.0899C523.471 66.0899 520.071 67.4999 517.321 70.3099C514.571 73.1199 513.201 77.0199 513.201 81.9999V82.8699C513.201 87.8499 514.571 91.7499 517.321 94.5599C520.071 97.3699 523.611 98.7799 527.941 98.7799Z" fill="black"/>
<path d="M577.7 106.34C574.79 106.34 572.48 105.47 570.76 103.72C569.05 101.97 568.19 99.65 568.19 96.74V66.96H555V58.52H568.19V42.71H578.18V58.52H592.44V66.96H578.18V94.99C578.18 96.93 579.08 97.9 580.9 97.9H590.89V106.34H577.7Z" fill="black"/>
<path d="M620.082 107.7C614.002 107.7 608.962 106.34 604.952 103.63C600.942 100.91 598.482 96.8099 597.582 91.3099L606.892 89.0799C607.412 91.7299 608.282 93.8299 609.512 95.3799C610.742 96.9299 612.272 98.0299 614.122 98.6799C615.962 99.3299 617.952 99.6499 620.092 99.6499C623.262 99.6499 625.702 99.0399 627.412 97.8099C629.122 96.5799 629.982 94.9999 629.982 93.0599C629.982 91.1199 629.172 89.6999 627.562 88.7899C625.942 87.8899 623.552 87.1399 620.382 86.5599L617.082 85.9799C613.852 85.3999 610.902 84.5599 608.252 83.4599C605.602 82.3599 603.502 80.8399 601.952 78.8999C600.402 76.9599 599.622 74.4699 599.622 71.4299C599.622 66.8999 601.302 63.3999 604.662 60.9099C608.022 58.4199 612.482 57.1799 618.042 57.1799C623.602 57.1799 627.822 58.3899 631.282 60.8199C634.742 63.2399 636.992 66.5299 638.022 70.6599L628.712 73.2799C628.132 70.3699 626.902 68.3199 625.022 67.1199C623.142 65.9199 620.822 65.3299 618.042 65.3299C615.262 65.3299 613.192 65.8299 611.642 66.8299C610.092 67.8299 609.312 69.2399 609.312 71.0499C609.312 72.9899 610.072 74.4099 611.592 75.3199C613.112 76.2299 615.162 76.9099 617.752 77.3599L621.152 77.9399C624.582 78.5199 627.712 79.3299 630.562 80.3599C633.402 81.3999 635.652 82.8799 637.302 84.8199C638.952 86.7599 639.772 89.3499 639.772 92.5799C639.772 97.3699 637.992 101.08 634.442 103.73C630.882 106.38 626.102 107.71 620.092 107.71L620.082 107.7Z" fill="black"/>
<mask id="mask0_1459_4104" style="mask-type:luminance" maskUnits="userSpaceOnUse" x="0" y="0" width="142" height="148">
<path d="M141.007 0H0V148H141.007V0Z" fill="white"/>
</mask>
<g mask="url(#mask0_1459_4104)">
<path d="M141.018 0L6.56641 53.067L84.9522 62.3062L101.703 140.926L141.018 0Z" fill="black"/>
<path d="M78.7115 159.882L62.9673 85.9478L-10.6719 77.2778L-9.1066 64.0034L74.0361 73.8016L91.7725 157.097L78.7115 159.882Z" fill="black"/>
<path d="M57.928 180.657L42.1837 106.723L-31.4453 98.0533L-29.8902 84.7891L53.2626 94.5771L70.999 177.882L57.928 180.657Z" fill="black"/>
<path d="M36.8639 201.728L21.1196 127.794L-52.5195 119.114L-50.9543 105.849L32.1884 115.648L49.935 198.943L36.8639 201.728Z" fill="black"/>
<path d="M16.0475 222.544L0.30324 148.61L-73.3359 139.94L-71.7707 126.666L11.372 136.464L29.1084 219.759L16.0475 222.544Z" fill="black"/>
</g>
</g>
<defs>
<clipPath id="clip0_1459_4104">
<rect width="640" height="148" fill="white"/>
</clipPath>
</defs>
</svg>

<svg xmlns="http://www.w3.org/2000/svg" width="640" height="148" fill="none" viewBox="0 0 640 148"><g clip-path="url(#a)"><path fill="#000" d="m173.541 106.34-9.99-67.89h10.48l8.15 60.81h1.55l10.48-60.81h18.33l10.48 60.81h1.55l8.05-60.81h10.48l-9.99 67.89h-18.33l-10.67-61.69h-1.55l-10.57 61.69h-18.45M250.061 106.34V38.45h9.99v26.87h1.55c.65-1.23 1.57-2.42 2.76-3.59 1.2-1.16 2.78-2.12 4.75-2.86s4.48-1.12 7.52-1.12c3.62 0 6.84.81 9.65 2.42 2.81 1.62 5.03 3.9 6.64 6.84 1.62 2.94 2.42 6.48 2.42 10.62v28.71h-9.99V78.41c0-4.14-1.04-7.19-3.1-9.17-2.07-1.97-4.92-2.96-8.54-2.96-4.14 0-7.45 1.36-9.94 4.07-2.49 2.72-3.73 6.66-3.73 11.83v24.15h-9.99zM327.951 107.7c-4.85 0-9.09-1.02-12.71-3.06s-6.45-4.91-8.49-8.63-3.06-8.03-3.06-12.95V81.9c0-4.98 1-9.33 3.01-13.05 2-3.72 4.8-6.6 8.39-8.63 3.59-2.04 7.74-3.06 12.46-3.06s8.62 1.02 12.08 3.06q5.19 3.06 8.1 8.49c1.94 3.62 2.91 7.86 2.91 12.71v3.78h-36.76c.13 4.2 1.54 7.55 4.22 10.04s6.03 3.73 10.04 3.73q5.625 0 8.49-2.52t4.41-5.82l8.24 4.27c-.91 1.81-2.22 3.72-3.93 5.72-1.71 2.01-3.96 3.69-6.74 5.04-2.78 1.36-6.34 2.04-10.67 2.04zm-13.97-30.16h26.48c-.26-3.62-1.55-6.45-3.88-8.49q-3.495-3.06-9.12-3.06c-3.75 0-6.81 1.02-9.17 3.06q-3.54 3.06-4.32 8.49zM358.98 106.34V58.52h9.8v5.63h1.55c.78-2 2.02-3.48 3.73-4.41 1.71-.94 3.83-1.41 6.35-1.41h5.72v9.02h-6.11q-4.845 0-7.95 2.67c-2.07 1.78-3.1 4.51-3.1 8.2v28.13h-9.99zM413.492 107.7c-4.79 0-9.04-.99-12.75-2.96-3.72-1.97-6.64-4.8-8.78-8.49-2.13-3.69-3.2-8.05-3.2-13.09v-1.45c0-5.04 1.07-9.39 3.2-13.05 2.13-3.65 5.06-6.48 8.78-8.49 3.72-2 7.97-3.01 12.75-3.01s9.05 1 12.8 3.01c3.75 2 6.69 4.83 8.83 8.49 2.13 3.65 3.2 8 3.2 13.05v1.45c0 5.04-1.07 9.41-3.2 13.09-2.13 3.69-5.08 6.51-8.83 8.49-3.75 1.97-8.02 2.96-12.8 2.96m0-8.92c4.4 0 7.97-1.41 10.72-4.22s4.12-6.71 4.12-11.69V82c0-4.98-1.36-8.88-4.07-11.69-2.72-2.81-6.3-4.22-10.77-4.22s-7.87 1.41-10.62 4.22-4.12 6.71-4.12 11.69v.87c0 4.98 1.37 8.88 4.12 11.69s6.29 4.22 10.62 4.22M474.689 107.7c-4.66 0-8.23-.84-10.72-2.52s-4.35-3.56-5.58-5.63h-1.55v6.79h-9.8V38.45h9.99v26.58h1.55c.78-1.29 1.81-2.54 3.1-3.73 1.29-1.2 3.01-2.18 5.14-2.96s4.75-1.16 7.86-1.16c4.01 0 7.69.97 11.06 2.91 3.36 1.94 6.05 4.75 8.05 8.44s3.01 8.08 3.01 13.19v1.45c0 5.17-1.02 9.59-3.06 13.24s-4.72 6.45-8.05 8.39q-4.995 2.91-11.01 2.91zm-2.91-8.73c4.33 0 7.9-1.39 10.72-4.17 2.81-2.78 4.22-6.76 4.22-11.93V82c0-5.11-1.39-9.05-4.17-11.83q-4.17-4.17-10.77-4.17c-4.4 0-7.81 1.39-10.62 4.17s-4.22 6.73-4.22 11.83v.87c0 5.17 1.41 9.15 4.22 11.93q4.215 4.17 10.62 4.17M527.941 107.7c-4.79 0-9.04-.99-12.75-2.96-3.72-1.97-6.64-4.8-8.78-8.49-2.13-3.69-3.2-8.05-3.2-13.09v-1.45c0-5.04 1.07-9.39 3.2-13.05 2.13-3.65 5.06-6.48 8.78-8.49 3.72-2 7.97-3.01 12.75-3.01s9.05 1 12.8 3.01c3.75 2 6.69 4.83 8.83 8.49 2.13 3.65 3.2 8 3.2 13.05v1.45c0 5.04-1.07 9.41-3.2 13.09-2.13 3.69-5.08 6.51-8.83 8.49-3.75 1.97-8.02 2.96-12.8 2.96m0-8.92c4.4 0 7.97-1.41 10.72-4.22s4.12-6.71 4.12-11.69V82c0-4.98-1.36-8.88-4.07-11.69-2.72-2.81-6.3-4.22-10.77-4.22s-7.87 1.41-10.62 4.22-4.12 6.71-4.12 11.69v.87c0 4.98 1.37 8.88 4.12 11.69s6.29 4.22 10.62 4.22M577.7 106.34c-2.91 0-5.22-.87-6.94-2.62-1.71-1.75-2.57-4.07-2.57-6.98V66.96H555v-8.44h13.19V42.71h9.99v15.81h14.26v8.44h-14.26v28.03c0 1.94.9 2.91 2.72 2.91h9.99v8.44zM620.082 107.7c-6.08 0-11.12-1.36-15.13-4.07-4.01-2.72-6.47-6.82-7.37-12.32l9.31-2.23c.52 2.65 1.39 4.75 2.62 6.3s2.76 2.65 4.61 3.3c1.84.65 3.83.97 5.97.97 3.17 0 5.61-.61 7.32-1.84s2.57-2.81 2.57-4.75-.81-3.36-2.42-4.27c-1.62-.9-4.01-1.65-7.18-2.23l-3.3-.58c-3.23-.58-6.18-1.42-8.83-2.52q-3.975-1.65-6.3-4.56c-1.55-1.94-2.33-4.43-2.33-7.47 0-4.53 1.68-8.03 5.04-10.52s7.82-3.73 13.38-3.73 9.78 1.21 13.24 3.64c3.46 2.42 5.71 5.71 6.74 9.84l-9.31 2.62c-.58-2.91-1.81-4.96-3.69-6.16s-4.2-1.79-6.98-1.79-4.85.5-6.4 1.5-2.33 2.41-2.33 4.22c0 1.94.76 3.36 2.28 4.27s3.57 1.59 6.16 2.04l3.4.58c3.43.58 6.56 1.39 9.41 2.42 2.84 1.04 5.09 2.52 6.74 4.46s2.47 4.53 2.47 7.76c0 4.79-1.78 8.5-5.33 11.15-3.56 2.65-8.34 3.98-14.35 3.98z"/><mask id="b" width="142" height="148" x="0" y="0" maskUnits="userSpaceOnUse" style="mask-type:luminance"><path fill="#fff" d="M141.007 0H0v148h141.007z"/></mask><g fill="#000" mask="url(#b)"><path d="M141.018 0 6.566 53.067l78.386 9.24 16.751 78.619z"/><path d="M78.712 159.882 62.967 85.948l-73.639-8.67 1.565-13.275 83.143 9.799 17.736 83.295z"/><path d="m57.928 180.657-15.744-73.934-73.63-8.67 1.556-13.264 83.153 9.788 17.736 83.305z"/><path d="M36.864 201.728 21.12 127.794l-73.64-8.68 1.566-13.265 83.142 9.799 17.747 83.295z"/><path d="M16.048 222.544.303 148.61l-73.639-8.67 1.565-13.274 83.143 9.798 17.736 83.295z"/></g></g><defs><clipPath id="a"><path fill="#fff" d="M0 0h640v148H0z"/></clipPath></defs></svg>
